X:7
T:Paddy O'Rafferty
S:Tommy Peoples, Donegal (fiddle)
D:Demo tape - 197?
R:Jig
Z:Bernie Stocks
N:As played
M:6/8
K:D
(3.d.d.ff (3.c.c.ee | (3.d.d.ff {a}gfe | dfd cec | ~d3 dBA | dff cee |
dff gfe | (3.f.g.af {a}gfe |1 dfe dBA :|2 dfe dcB || +F3A3+ ~B3 |
gfe fdB | (3.A.A.FA (3BABc | dfe dcB | A3 ~B3 | efe efg |
(3.f.g.aA gfe | dfe dcB :| {a}fAA eAA | def gfe | (3.f.a.fA (3.e.f.eA |
dfe dBA | (3.f.f.fA (3.e.e.eA | def gfe | faf {a}gfe | dfe dBA :|
<end>
<start>
